!!!OTL-incipit: DIE SONNE SCHEINT NICHT MEHR SO SCHOEN
!!!ARE: Europa, Mitteleuropa, Deutschland, Westrich
!!!SCT: Z0288
!!!TXL: @@DE
!!!YEM: Copyright 1995, estate of Helmut Schaffrath.
**kern	**text
*ICvox	*
!! Mixed meters:  2/4; 3/4
*M2/4	*
*k[f#]	*
*G:	*
!LO:TX:a:t=Aus dem Weſtrich.	!
{16bL	Die
16aJ	.
=1	=1
8g	Son-
8d	-ne
8g	ſcheint
8a	nicht
=2	=2
4.b}	mehr
{16bL	ſo
16aJ	.
=3	=3
8g	ſchön,
8g	als
8b	wie
8cc	vor-
=4	=4
4.dd}	-her,
{8dd	der
=5	=5
8dd	Tag
8dd	iſt
8gg	nicht
8ee	ſo
=6	=6
4dd	hei-
16eeL	-ter,
16ddJ}	.
{8cc	ſo
=7	=7
8b	lieb-
8b	-reich
8a	gar
8a	nicht
=8	=8
4g	mehr.
8r}	.
=||	=||
*M3/4	*
{8d	Das
=9	=9
8g	Feuer
8b	.
8ddL	kann
8bJ	.
8ggL	man
8eeJ	.
=10	=10
8ddL	lö-
8bJ	.
4.g}	-ſchen,
{8d	die
=11	=11
8b/	Lie-
8b/	-be
8ddL	nicht
8bJ	.
8ggL	ver-
8eeJ	.
=12	=12
8ddL	-geſ-
8bJ	.
4.g}	-ſen,
{8d	das
=13	=13
8g	Feu-
8b/	-er
4dd	brennt
4gg	ſo
=14	=14
4.ee}	ſehr,
{8ee	die
8dd	Lie-
8cc	-be
=15	=15
2b	noch
4a	viel
=16	=16
2g	mehr.
8r}	.
==	==
!!!AGN: Lyrisches Lied, Romanze, Trennung
!!!ONB: ESAC (Essen Associative Code) Database: ZUCCAL
!!!AMT: irregular
!!!AIN: vox
!!!EED: Helmut Schaffrath
!!!EEV: 1.0
!!!GTL: IV. Lyrische Lieder.
!!!URL-scan: https://www.digitale-sammlungen.de/de/view/bsb11160571?page=520
!!!ENC: Anna Maria Matuszewska
!!!EEV: 2025/01/30
*-	*-
